third_party/noto/noto_2/emoji_u1f5f3.svg

<svg enable-background="new 0 0 128 128" viewBox="0 0 128 128" xmlns="http://www.w3.org/2000/svg" xmlns:xlink="http://www.w3.org/1999/xlink"><path d="M124,93H4L3.97,75.99l6.89-27.43c0.67-2.67,3.07-4.54,5.82-4.54h94.61c2.77,0,5.17,1.89,5.83,4.58 l6.68,27.4L124,93z" fill="#B0BEC5"/><linearGradient id="f" x1="64" x2="64" y1="55" y2="131.92" gradientUnits="userSpaceOnUse"><stop stop-color="#B0BEC5" offset="0"/><stop stop-color="#78909C" offset="1"/></linearGradient><path d="m118 124.01h-108c-3.31 0-6-2.69-6-6v-42h120v42c0 3.32-2.69 6-6 6z" fill="url(#f)"/><path d="m94 64.7h-60c-2.76 0-5-2.24-5-5s2.24-5 5-5h60c2.76 0 5 2.24 5 5s-2.24 5-5 5z" fill="#757575"/><g opacity=".2"><path d="m111.32 47.02c1.38 0 2.58 0.93 2.91 2.27l6.77 27.1v41.61c0 1.65-1.35 3-3 3h-108c-1.65 0-3-1.35-3-3v-41.61l6.77-27.1c0.33-1.34 1.53-2.27 2.91-2.27h94.64m0-3h-94.64c-2.75 0-5.15 1.87-5.82 4.54l-6.86 27.46v41.98c0 3.31 2.69 6 6 6h108c3.31 0 6-2.69 6-6v-41.98l-6.86-27.45c-0.67-2.67-3.07-4.55-5.82-4.55z" fill="#444"/></g><defs><rect id="e" x="31.12" y="3.44" width="65.75" height="61.27"/></defs><clipPath id="a"><use xlink:href="#e"/></clipPath><linearGradient id="d" x1="64.002" x2="64.002" y1="10.839" y2="63.579" gradientUnits="userSpaceOnUse"><stop stop-color="#FFEE58" offset=".4154"/><stop stop-color="#FDD835" offset="1"/></linearGradient><path d="m85.24 10.49h-42.48c-3.31 0-6 2.69-6 6v48.21h54.48v-48.21c0-3.31-2.68-6-6-6z" clip-path="url(#a)" fill="url(#d)"/><linearGradient id="c" x1="64.002" x2="64.002" y1="10.869" y2="68.282" gradientUnits="userSpaceOnUse"><stop stop-color="#FFEE58" offset=".4104"/><stop stop-color="#FDD835" offset=".6832"/><stop stop-color="#EBC620" offset=".9155"/></linearGradient><path d="m85.24 10.49h-42.48c-3.31 0-6 2.69-6 6v53.02h54.48v-53.02c0-3.31-2.68-6-6-6z" clip-path="url(#a)" fill="url(#c)"/><g clip-path="url(#a)" opacity=".2"><path d="m85.24 13.49c1.65 0 3 1.35 3 3v50.02h-48.48v-50.02c0-1.65 1.35-3 3-3h42.48m0-3h-42.48c-3.31 0-6 2.69-6 6v53.02h54.48v-53.02c0-3.31-2.68-6-6-6z" fill="#444"/></g><g fill="#795548"><path d="m72.41 53.6-23.13-23.14c-1.74-1.74-1.74-4.57 0-6.31s4.57-1.74 6.31 0l23.13 23.13c1.74 1.74 1.74 4.57 0 6.31-1.74 1.75-4.57 1.75-6.31 0.01z"/><path d="m49.28 47.29 23.13-23.13c1.74-1.74 4.57-1.74 6.31 0s1.74 4.57 0 6.31l-23.13 23.13c-1.74 1.74-4.57 1.74-6.31 0-1.74-1.75-1.74-4.57 0-6.31z"/></g><linearGradient id="b" x1="63.999" x2="63.999" y1="64.697" y2="59.57" gradientUnits="userSpaceOnUse"><stop stop-color="#444" offset="0"/><stop stop-color="#444" stop-opacity="0" offset="1"/></linearGradient><path d="m29.01 59.57c0 0.04-0.01 0.08-0.01 0.13 0 2.76 2.24 5 5 5h60c2.76 0 5-2.24 5-5 0-0.04-0.01-0.08-0.01-0.13h-69.98z" fill="url(#b)" opacity=".4"/></svg>

<svg width="128" height="128" style="enable-background:new 0 0 128 128;" xmlns="http://www.w3.org/2000/svg" xmlns:xlink="http://www.w3.org/1999/xlink">
  <g id="Layer_2">
    <g>
      <path d="M124,93H4L3.97,75.99l6.89-27.43c0.67-2.67,3.07-4.54,5.82-4.54h94.61c2.77,0,5.17,1.89,5.83,4.58 l6.68,27.4L124,93z" style="fill:#B0BEC5;"/>
      <linearGradient id="SVGID_1_" gradientUnits="userSpaceOnUse" x1="64" x2="64" y1="55" y2="131.9172">
        <stop offset="0" style="stop-color:#B0BEC5"/>
        <stop offset="1" style="stop-color:#78909C"/>
      </linearGradient>
      <path d="M118,124.01H10c-3.31,0-6-2.69-6-6v-42h120v42C124,121.33,121.31,124.01,118,124.01z" style="fill:url(#SVGID_1_);"/>
      <path d="M94,64.7H34c-2.76,0-5-2.24-5-5v0c0-2.76,2.24-5,5-5h60c2.76,0,5,2.24,5,5v0 C99,62.46,96.76,64.7,94,64.7z" style="fill:#757575;"/>
      <g style="opacity:0.2;">
        <path d="M111.32,47.02c1.38,0,2.58,0.93,2.91,2.27l6.77,27.1V118c0,1.65-1.35,3-3,3H10c-1.65,0-3-1.35-3-3 V76.39l6.77-27.1c0.33-1.34,1.53-2.27,2.91-2.27H111.32 M111.32,44.02H16.68c-2.75,0-5.15,1.87-5.82,4.54L4,76.02V118 c0,3.31,2.69,6,6,6h108c3.31,0,6-2.69,6-6V76.02l-6.86-27.45C116.47,45.9,114.07,44.02,111.32,44.02L111.32,44.02z" style="fill:#444444;"/>
      </g>
      <g>
        <defs>
          <rect id="SVGID_2_" height="61.27" width="65.75" x="31.12" y="3.44"/>
        </defs>
        <clipPath id="SVGID_3_">
          <use style="overflow:visible;" xlink:href="#SVGID_2_"/>
        </clipPath>
        <linearGradient id="SVGID_5_" gradientUnits="userSpaceOnUse" x1="64.0017" x2="64.0017" y1="10.8386" y2="63.5787">
          <stop offset="0.4154" style="stop-color:#FFEE58"/>
          <stop offset="1" style="stop-color:#FDD835"/>
        </linearGradient>
        <path d="M85.24,10.49H42.76c-3.31,0-6,2.69-6,6v48.21h54.48V16.49 C91.24,13.18,88.56,10.49,85.24,10.49z" style="clip-path:url(#SVGID_3_);fill:url(#SVGID_5_);"/>
        <linearGradient id="SVGID_6_" gradientUnits="userSpaceOnUse" x1="64.0017" x2="64.0017" y1="10.8693" y2="68.2824">
          <stop offset="0.4104" style="stop-color:#FFEE58"/>
          <stop offset="0.6832" style="stop-color:#FDD835"/>
          <stop offset="0.9155" style="stop-color:#EBC620"/>
        </linearGradient>
        <path d="M85.24,10.49H42.76c-3.31,0-6,2.69-6,6v53.02h54.48V16.49 C91.24,13.18,88.56,10.49,85.24,10.49z" style="clip-path:url(#SVGID_3_);fill:url(#SVGID_6_);"/>
        <g style="opacity:0.2;clip-path:url(#SVGID_3_);">
          <path d="M85.24,13.49c1.65,0,3,1.35,3,3v50.02H39.76V16.49c0-1.65,1.35-3,3-3H85.24 M85.24,10.49H42.76 c-3.31,0-6,2.69-6,6v53.02h54.48V16.49C91.24,13.18,88.56,10.49,85.24,10.49L85.24,10.49z" style="fill:#444444;"/>
        </g>
      </g>
    </g>
    <g>
      <path d="M72.41,53.6L49.28,30.46c-1.74-1.74-1.74-4.57,0-6.31l0,0c1.74-1.74,4.57-1.74,6.31,0l23.13,23.13 c1.74,1.74,1.74,4.57,0,6.31l0,0C76.98,55.34,74.15,55.34,72.41,53.6z" style="fill:#795548;"/>
      <path d="M49.28,47.29l23.13-23.13c1.74-1.74,4.57-1.74,6.31,0l0,0c1.74,1.74,1.74,4.57,0,6.31L55.59,53.6 c-1.74,1.74-4.57,1.74-6.31,0l0,0C47.54,51.85,47.54,49.03,49.28,47.29z" style="fill:#795548;"/>
    </g>
    <linearGradient id="SVGID_7_" gradientUnits="userSpaceOnUse" x1="63.9994" x2="63.9994" y1="64.6973" y2="59.5698">
      <stop offset="0" style="stop-color:#444444"/>
      <stop offset="1" style="stop-color:#444444;stop-opacity:0"/>
    </linearGradient>
    <path d="M29.01,59.57c0,0.04-0.01,0.08-0.01,0.13c0,2.76,2.24,5,5,5h60 c2.76,0,5-2.24,5-5c0-0.04-0.01-0.08-0.01-0.13H29.01z" style="opacity:0.4;fill:url(#SVGID_7_);"/>
  </g>
  <g id="レイヤー_1" style="display:none;">
    <g style="display:inline;">
      <g style="opacity:0.6;">
        <circle cx="64" cy="64" r="28" style="opacity:0.61;fill:none;stroke:#000000;stroke-width:0.2625;stroke-miterlimit:10;"/>
        <line style="opacity:0.61;fill:none;stroke:#000000;stroke-width:0.25;stroke-miterlimit:10;" x1="84" x2="84" y1="0" y2="128"/>
        <line style="opacity:0.61;fill:none;stroke:#000000;stroke-width:0.25;stroke-miterlimit:10;" x1="44" x2="44" y1="0" y2="128"/>
        <line style="opacity:0.61;fill:none;stroke:#000000;stroke-width:0.25;stroke-miterlimit:10;" x1="64" x2="64" y1="0" y2="128"/>
        <line style="opacity:0.61;fill:none;stroke:#000000;stroke-width:0.25;stroke-miterlimit:10;" x1="128" x2="0" y1="64" y2="64"/>
        <line style="opacity:0.61;fill:none;stroke:#000000;stroke-width:0.25;stroke-miterlimit:10;" x1="128" x2="0" y1="44" y2="44"/>
        <line style="opacity:0.61;fill:none;stroke:#000000;stroke-width:0.25;stroke-miterlimit:10;" x1="128" x2="0" y1="83.75" y2="83.75"/>
        <line style="opacity:0.61;fill:none;stroke:#000000;stroke-width:0.25;stroke-miterlimit:10;" x1="128" x2="0" y1="128" y2="0"/>
        <line style="opacity:0.61;fill:none;stroke:#000000;stroke-width:0.25;stroke-miterlimit:10;" x1="0" x2="128" y1="128" y2="0"/>
        <g style="opacity:0.61;">
          <path d="M64,4.26c32.94,0,59.74,26.8,59.74,59.74S96.94,123.74,64,123.74S4.26,96.94,4.26,64S31.06,4.26,64,4.26 M64,4 C30.86,4,4,30.86,4,64s26.86,60,60,60s60-26.86,60-60S97.14,4,64,4L64,4z"/>
        </g>
        <path d="M107.97,115.97H20.03 c-4.42,0-8.03-3.61-8.03-8.03V20.03c0-4.42,3.61-8.03,8.03-8.03h87.94c4.42,0,8.03,3.61,8.03,8.03v87.91 C116,112.36,112.39,115.97,107.97,115.97z" style="opacity:0.61;fill:none;stroke:#000000;stroke-width:0.2578;stroke-miterlimit:10;"/>
        <path d="M100,124H28c-4.4,0-8-3.6-8-8 V12c0-4.4,3.6-8,8-8h72c4.4,0,8,3.6,8,8v104C108,120.4,104.4,124,100,124z" style="opacity:0.61;fill:none;stroke:#000000;stroke-width:0.2628;stroke-miterlimit:10;"/>
        <path d="M113.77,108H14.23 C8.6,108,4,103.4,4,97.77V30.28c0-5.63,4.6-10.23,10.23-10.23h99.54c5.63,0,10.23,4.6,10.23,10.23v67.48 C124,103.4,119.4,108,113.77,108z" style="opacity:0.61;fill:none;stroke:#000000;stroke-width:0.2627;stroke-miterlimit:10;"/>
      </g>
      <g>
        <g style="opacity:0.2;">
          <defs>
            <rect id="SVGID_4_" height="128" style="opacity:0.2;" width="128" x="0" y="0"/>
          </defs>
          <clipPath id="SVGID_8_">
            <use style="overflow:visible;" xlink:href="#SVGID_4_"/>
          </clipPath>
          <g style="clip-path:url(#SVGID_8_);">
            <g>
              <line style="fill:none;stroke:#000000;stroke-width:0.25;stroke-miterlimit:10;" x1="-28" x2="-28" y1="160" y2="-32"/>
              <line style="fill:none;stroke:#000000;stroke-width:0.25;stroke-miterlimit:10;" x1="-24" x2="-24" y1="160" y2="-32"/>
              <line style="fill:none;stroke:#000000;stroke-width:0.25;stroke-miterlimit:10;" x1="-20" x2="-20" y1="160" y2="-32"/>
              <line style="fill:none;stroke:#000000;stroke-width:0.25;stroke-miterlimit:10;" x1="-16" x2="-16" y1="160" y2="-32"/>
              <line style="fill:none;stroke:#000000;stroke-width:0.25;stroke-miterlimit:10;" x1="-12" x2="-12" y1="160" y2="-32"/>
              <line style="fill:none;stroke:#000000;stroke-width:0.25;stroke-miterlimit:10;" x1="-8" x2="-8" y1="160" y2="-32"/>
              <line style="fill:none;stroke:#000000;stroke-width:0.25;stroke-miterlimit:10;" x1="-4" x2="-4" y1="160" y2="-32"/>
              <line style="fill:none;stroke:#000000;stroke-width:0.25;stroke-miterlimit:10;" x1="0" x2="0" y1="160" y2="-32"/>
              <line style="fill:none;stroke:#000000;stroke-width:0.25;stroke-miterlimit:10;" x1="4" x2="4" y1="160" y2="-32"/>
              <line style="fill:none;stroke:#000000;stroke-width:0.25;stroke-miterlimit:10;" x1="8" x2="8" y1="160" y2="-32"/>
              <line style="fill:none;stroke:#000000;stroke-width:0.25;stroke-miterlimit:10;" x1="12" x2="12" y1="160" y2="-32"/>
              <line style="fill:none;stroke:#000000;stroke-width:0.25;stroke-miterlimit:10;" x1="16" x2="16" y1="160" y2="-32"/>
              <line style="fill:none;stroke:#000000;stroke-width:0.25;stroke-miterlimit:10;" x1="20" x2="20" y1="160" y2="-32"/>
              <line style="fill:none;stroke:#000000;stroke-width:0.25;stroke-miterlimit:10;" x1="24" x2="24" y1="160" y2="-32"/>
              <line style="fill:none;stroke:#000000;stroke-width:0.25;stroke-miterlimit:10;" x1="28" x2="28" y1="160" y2="-32"/>
              <line style="fill:none;stroke:#000000;stroke-width:0.25;stroke-miterlimit:10;" x1="32" x2="32" y1="160" y2="-32"/>
              <line style="fill:none;stroke:#000000;stroke-width:0.25;stroke-miterlimit:10;" x1="36" x2="36" y1="160" y2="-32"/>
              <line style="fill:none;stroke:#000000;stroke-width:0.25;stroke-miterlimit:10;" x1="40" x2="40" y1="160" y2="-32"/>
              <line style="fill:none;stroke:#000000;stroke-width:0.25;stroke-miterlimit:10;" x1="44" x2="44" y1="160" y2="-32"/>
              <line style="fill:none;stroke:#000000;stroke-width:0.25;stroke-miterlimit:10;" x1="48" x2="48" y1="160" y2="-32"/>
              <line style="fill:none;stroke:#000000;stroke-width:0.25;stroke-miterlimit:10;" x1="52" x2="52" y1="160" y2="-32"/>
              <line style="fill:none;stroke:#000000;stroke-width:0.25;stroke-miterlimit:10;" x1="56" x2="56" y1="160" y2="-32"/>
              <line style="fill:none;stroke:#000000;stroke-width:0.25;stroke-miterlimit:10;" x1="60" x2="60" y1="160" y2="-32"/>
              <line style="fill:none;stroke:#000000;stroke-width:0.25;stroke-miterlimit:10;" x1="64" x2="64" y1="160" y2="-32"/>
              <line style="fill:none;stroke:#000000;stroke-width:0.25;stroke-miterlimit:10;" x1="68" x2="68" y1="160" y2="-32"/>
              <line style="fill:none;stroke:#000000;stroke-width:0.25;stroke-miterlimit:10;" x1="72" x2="72" y1="160" y2="-32"/>
              <line style="fill:none;stroke:#000000;stroke-width:0.25;stroke-miterlimit:10;" x1="76" x2="76" y1="160" y2="-32"/>
              <line style="fill:none;stroke:#000000;stroke-width:0.25;stroke-miterlimit:10;" x1="80" x2="80" y1="160" y2="-32"/>
              <line style="fill:none;stroke:#000000;stroke-width:0.25;stroke-miterlimit:10;" x1="84" x2="84" y1="160" y2="-32"/>
              <line style="fill:none;stroke:#000000;stroke-width:0.25;stroke-miterlimit:10;" x1="88" x2="88" y1="160" y2="-32"/>
              <line style="fill:none;stroke:#000000;stroke-width:0.25;stroke-miterlimit:10;" x1="92" x2="92" y1="160" y2="-32"/>
              <line style="fill:none;stroke:#000000;stroke-width:0.25;stroke-miterlimit:10;" x1="96" x2="96" y1="160" y2="-32"/>
              <line style="fill:none;stroke:#000000;stroke-width:0.25;stroke-miterlimit:10;" x1="100" x2="100" y1="160" y2="-32"/>
              <line style="fill:none;stroke:#000000;stroke-width:0.25;stroke-miterlimit:10;" x1="104" x2="104" y1="160" y2="-32"/>
              <line style="fill:none;stroke:#000000;stroke-width:0.25;stroke-miterlimit:10;" x1="108" x2="108" y1="160" y2="-32"/>
              <line style="fill:none;stroke:#000000;stroke-width:0.25;stroke-miterlimit:10;" x1="112" x2="112" y1="160" y2="-32"/>
              <line style="fill:none;stroke:#000000;stroke-width:0.25;stroke-miterlimit:10;" x1="116" x2="116" y1="160" y2="-32"/>
              <line style="fill:none;stroke:#000000;stroke-width:0.25;stroke-miterlimit:10;" x1="120" x2="120" y1="160" y2="-32"/>
              <line style="fill:none;stroke:#000000;stroke-width:0.25;stroke-miterlimit:10;" x1="124" x2="124" y1="160" y2="-32"/>
              <line style="fill:none;stroke:#000000;stroke-width:0.25;stroke-miterlimit:10;" x1="128" x2="128" y1="160" y2="-32"/>
              <line style="fill:none;stroke:#000000;stroke-width:0.25;stroke-miterlimit:10;" x1="132" x2="132" y1="160" y2="-32"/>
              <line style="fill:none;stroke:#000000;stroke-width:0.25;stroke-miterlimit:10;" x1="136" x2="136" y1="160" y2="-32"/>
              <line style="fill:none;stroke:#000000;stroke-width:0.25;stroke-miterlimit:10;" x1="137" x2="137" y1="166.05" y2="-25.95"/>
              <line style="fill:none;stroke:#000000;stroke-width:0.25;stroke-miterlimit:10;" x1="144" x2="144" y1="160" y2="-32"/>
              <line style="fill:none;stroke:#000000;stroke-width:0.25;stroke-miterlimit:10;" x1="148" x2="148" y1="160" y2="-32"/>
              <line style="fill:none;stroke:#000000;stroke-width:0.25;stroke-miterlimit:10;" x1="152" x2="152" y1="160" y2="-32"/>
              <line style="fill:none;stroke:#000000;stroke-width:0.25;stroke-miterlimit:10;" x1="156" x2="156" y1="160" y2="-32"/>
            </g>
            <g>
              <line style="fill:none;stroke:#000000;stroke-width:0.25;stroke-miterlimit:10;" x1="-32" x2="160" y1="-28" y2="-28"/>
              <line style="fill:none;stroke:#000000;stroke-width:0.25;stroke-miterlimit:10;" x1="-32" x2="160" y1="-24" y2="-24"/>
              <line style="fill:none;stroke:#000000;stroke-width:0.25;stroke-miterlimit:10;" x1="-32" x2="160" y1="-20" y2="-20"/>
              <line style="fill:none;stroke:#000000;stroke-width:0.25;stroke-miterlimit:10;" x1="-32" x2="160" y1="-16" y2="-16"/>
              <line style="fill:none;stroke:#000000;stroke-width:0.25;stroke-miterlimit:10;" x1="-32" x2="160" y1="-12" y2="-12"/>
              <line style="fill:none;stroke:#000000;stroke-width:0.25;stroke-miterlimit:10;" x1="-32" x2="160" y1="-8" y2="-8"/>
              <line style="fill:none;stroke:#000000;stroke-width:0.25;stroke-miterlimit:10;" x1="-32" x2="160" y1="-4" y2="-4"/>
              <line style="fill:none;stroke:#000000;stroke-width:0.25;stroke-miterlimit:10;" x1="-32" x2="160" y1="0" y2="0"/>
              <line style="fill:none;stroke:#000000;stroke-width:0.25;stroke-miterlimit:10;" x1="-32" x2="160" y1="4" y2="4"/>
              <line style="fill:none;stroke:#000000;stroke-width:0.25;stroke-miterlimit:10;" x1="-32" x2="160" y1="8" y2="8"/>
              <line style="fill:none;stroke:#000000;stroke-width:0.25;stroke-miterlimit:10;" x1="-32" x2="160" y1="12" y2="12"/>
              <line style="fill:none;stroke:#000000;stroke-width:0.25;stroke-miterlimit:10;" x1="-32" x2="160" y1="16" y2="16"/>
              <line style="fill:none;stroke:#000000;stroke-width:0.25;stroke-miterlimit:10;" x1="-32" x2="160" y1="20" y2="20"/>
              <line style="fill:none;stroke:#000000;stroke-width:0.25;stroke-miterlimit:10;" x1="-32" x2="160" y1="24" y2="24"/>
              <line style="fill:none;stroke:#000000;stroke-width:0.25;stroke-miterlimit:10;" x1="-32" x2="160" y1="28" y2="28"/>
              <line style="fill:none;stroke:#000000;stroke-width:0.25;stroke-miterlimit:10;" x1="-32" x2="160" y1="32" y2="32"/>
              <line style="fill:none;stroke:#000000;stroke-width:0.25;stroke-miterlimit:10;" x1="-32" x2="160" y1="36" y2="36"/>
              <line style="fill:none;stroke:#000000;stroke-width:0.25;stroke-miterlimit:10;" x1="-32" x2="160" y1="40" y2="40"/>
              <line style="fill:none;stroke:#000000;stroke-width:0.25;stroke-miterlimit:10;" x1="-32" x2="160" y1="44" y2="44"/>
              <line style="fill:none;stroke:#000000;stroke-width:0.25;stroke-miterlimit:10;" x1="-32" x2="160" y1="48" y2="48"/>
              <line style="fill:none;stroke:#000000;stroke-width:0.25;stroke-miterlimit:10;" x1="-32" x2="160" y1="52" y2="52"/>
              <line style="fill:none;stroke:#000000;stroke-width:0.25;stroke-miterlimit:10;" x1="-32" x2="160" y1="56" y2="56"/>
              <line style="fill:none;stroke:#000000;stroke-width:0.25;stroke-miterlimit:10;" x1="-32" x2="160" y1="60" y2="60"/>
              <line style="fill:none;stroke:#000000;stroke-width:0.25;stroke-miterlimit:10;" x1="-32" x2="160" y1="64" y2="64"/>
              <line style="fill:none;stroke:#000000;stroke-width:0.25;stroke-miterlimit:10;" x1="-32" x2="160" y1="68" y2="68"/>
              <line style="fill:none;stroke:#000000;stroke-width:0.25;stroke-miterlimit:10;" x1="-32" x2="160" y1="72" y2="72"/>
              <line style="fill:none;stroke:#000000;stroke-width:0.25;stroke-miterlimit:10;" x1="-32" x2="160" y1="76" y2="76"/>
              <line style="fill:none;stroke:#000000;stroke-width:0.25;stroke-miterlimit:10;" x1="-32" x2="160" y1="80" y2="80"/>
              <line style="fill:none;stroke:#000000;stroke-width:0.25;stroke-miterlimit:10;" x1="-32" x2="160" y1="84" y2="84"/>
              <line style="fill:none;stroke:#000000;stroke-width:0.25;stroke-miterlimit:10;" x1="-32" x2="160" y1="88" y2="88"/>
              <line style="fill:none;stroke:#000000;stroke-width:0.25;stroke-miterlimit:10;" x1="-32" x2="160" y1="92" y2="92"/>
              <line style="fill:none;stroke:#000000;stroke-width:0.25;stroke-miterlimit:10;" x1="-32" x2="160" y1="96" y2="96"/>
              <line style="fill:none;stroke:#000000;stroke-width:0.25;stroke-miterlimit:10;" x1="-32" x2="160" y1="100" y2="100"/>
              <line style="fill:none;stroke:#000000;stroke-width:0.25;stroke-miterlimit:10;" x1="-32" x2="160" y1="104" y2="104"/>
              <line style="fill:none;stroke:#000000;stroke-width:0.25;stroke-miterlimit:10;" x1="-32" x2="160" y1="108" y2="108"/>
              <line style="fill:none;stroke:#000000;stroke-width:0.25;stroke-miterlimit:10;" x1="-32" x2="160" y1="112" y2="112"/>
              <line style="fill:none;stroke:#000000;stroke-width:0.25;stroke-miterlimit:10;" x1="-32" x2="160" y1="116" y2="116"/>
              <line style="fill:none;stroke:#000000;stroke-width:0.25;stroke-miterlimit:10;" x1="-32" x2="160" y1="120" y2="120"/>
              <line style="fill:none;stroke:#000000;stroke-width:0.25;stroke-miterlimit:10;" x1="-32" x2="160" y1="124" y2="124"/>
              <line style="fill:none;stroke:#000000;stroke-width:0.25;stroke-miterlimit:10;" x1="-32" x2="160" y1="128" y2="128"/>
              <line style="fill:none;stroke:#000000;stroke-width:0.25;stroke-miterlimit:10;" x1="-32" x2="160" y1="132" y2="132"/>
              <line style="fill:none;stroke:#000000;stroke-width:0.25;stroke-miterlimit:10;" x1="-32" x2="160" y1="136" y2="136"/>
              <line style="fill:none;stroke:#000000;stroke-width:0.25;stroke-miterlimit:10;" x1="-32" x2="160" y1="140" y2="140"/>
              <line style="fill:none;stroke:#000000;stroke-width:0.25;stroke-miterlimit:10;" x1="-32" x2="160" y1="144" y2="144"/>
              <line style="fill:none;stroke:#000000;stroke-width:0.25;stroke-miterlimit:10;" x1="-32" x2="160" y1="148" y2="148"/>
              <line style="fill:none;stroke:#000000;stroke-width:0.25;stroke-miterlimit:10;" x1="-32" x2="160" y1="152" y2="152"/>
              <line style="fill:none;stroke:#000000;stroke-width:0.25;stroke-miterlimit:10;" x1="-32" x2="160" y1="156" y2="156"/>
            </g>
            <path d="M159.75-31.75v191.5h-191.5v-191.5H159.75 M160-32H-32v192h192V-32L160-32z"/>
          </g>
        </g>
        <g>
          <rect height="128" style="opacity:0.3;fill:#EF4438;" width="4" x="0" y="0"/>
          <rect height="128" style="opacity:0.3;fill:#EF4438;" width="4" x="124" y="0"/>
          <rect height="120" style="opacity:0.3;fill:#EF4438;" transform="matrix(-1.836970e-16 1 -1 -1.836970e-16 66 -62)" width="4" x="62" y="-58"/>
          <rect height="120" style="opacity:0.3;fill:#EF4438;" transform="matrix(-1.836970e-16 1 -1 -1.836970e-16 190 62)" width="4" x="62" y="66"/>
        </g>
      </g>
    </g>
  </g>
</svg>
